pieces/chess7/qb.svg

<svg width="68" height="68" viewBox="0 0 68 68" fill="none" xmlns="http://www.w3.org/2000/svg">
<path d="M19.104 48.048L8.35199 23.728C7.41333 23.984 6.64533 23.792 6.04799 23.152L4.63999 21.616C3.35999 20.5067 3.35999 19.312 4.63999 18.032L6.04799 16.688C7.15733 15.3227 8.33066 15.3227 9.56799 16.688L11.104 18.032C12.128 19.312 12.128 20.5067 11.104 21.616L10.336 22.384L21.28 30.96L20.32 17.136C19.7653 17.008 19.296 16.752 18.912 16.368L17.568 14.96C16.2453 13.7653 16.2453 12.592 17.568 11.44L18.912 9.904C20.1067 8.79467 21.3013 8.79467 22.496 9.904L24.032 11.44C25.056 12.592 25.056 13.7653 24.032 14.96L22.496 16.368L29.088 27.632L32.608 14.704L32.032 14.384L30.624 12.848C29.472 11.6533 29.472 10.4587 30.624 9.264L32.032 7.728C33.184 6.78933 34.3573 6.78933 35.552 7.728L36.96 9.264C38.2827 10.4587 38.2827 11.6533 36.96 12.848L35.552 14.384L34.912 14.704L38.496 27.76L45.088 16.688L43.552 15.152C42.528 13.9147 42.528 12.6773 43.552 11.44L44.96 10.032C46.1973 9.008 47.4133 9.008 48.608 10.032L50.016 11.44C51.2533 12.6773 51.2533 13.9147 50.016 15.152L48.608 16.496L47.392 17.264L46.624 30.832L57.888 20.848L56.928 20.08C55.904 18.8427 55.904 17.6053 56.928 16.368L58.464 14.96C59.6587 13.8507 60.8533 13.8507 62.048 14.96L63.392 16.368C64.6293 17.6053 64.6293 18.8427 63.392 20.08L62.048 21.424C61.3227 22.1493 60.5333 22.4053 59.68 22.192L48.48 48.496L51.552 60.976H14.624L19.104 48.048Z" fill="black"/>
<path fill-rule="evenodd" clip-rule="evenodd" d="M19.748 55.859C19.748 55.794 20.046 54.777 20.411 53.599L21.074 51.455L22.048 52.296L23.022 53.137L21.522 54.547C20.113 55.871 19.748 56.141 19.748 55.859ZM25.66 53.126C25.596 52.543 25.528 51.909 25.51 51.716C25.481 51.428 25.692 51.311 26.695 51.056L27.915 50.747L28.019 51.589L28.207 53.091L28.291 53.752L27.264 53.881C26.699 53.951 26.134 54.049 26.007 54.097C25.846 54.159 25.743 53.87 25.66 53.126V53.126ZM32.233 53.465L30.626 51.847L32.195 50.411C33.057 49.621 33.851 48.976 33.959 48.976C34.067 48.976 34.766 49.646 35.513 50.467L36.87 51.959L35.355 53.521L33.839 55.084L32.233 53.465ZM39.884 53.843C39.11 53.763 39.113 53.773 39.407 51.991L39.611 50.754L40.816 51.062C41.63 51.27 42.01 51.453 41.988 51.627C41.9162 52.0628 41.8362 52.4972 41.748 52.93C41.52 54.08 41.631 54.026 39.884 53.843V53.843ZM45.512 54.553L44.094 53.339L45.052 52.486C45.579 52.016 46.054 51.675 46.107 51.727C46.258 51.878 47.159 55.795 47.038 55.781C46.978 55.773 46.292 55.221 45.512 54.553V54.553ZM44.02 45.334C39.597 43.182 35.935 42.427 32.035 42.866C29.472 43.155 27.84 43.604 24.408 44.966L21.522 46.11L20.989 44.936C20.588 44.05 20.507 43.702 20.659 43.519C20.974 43.139 23.691 41.859 25.256 41.353C28.986 40.147 33.776 39.704 37.358 40.234C40.053 40.633 41.848 41.208 44.794 42.617C47.08 43.711 47.194 43.791 47.038 44.191C46.686 45.092 46.122 46.339 46.073 46.323C46.044 46.315 45.121 45.87 44.021 45.334H44.02ZM59.495 18.66L59.034 18.07L59.609 17.477L60.184 16.884L60.773 17.454L61.361 18.024L60.873 18.636C60.604 18.973 60.288 19.248 60.17 19.248C60.052 19.248 59.749 18.983 59.495 18.659V18.66ZM46.112 13.885L45.495 13.248L46.121 12.601L46.748 11.955L47.345 12.605L47.942 13.257L47.46 13.889C47.195 14.237 46.921 14.521 46.853 14.521C46.784 14.521 46.451 14.235 46.112 13.885V13.885ZM33.148 11.831L32.474 11.141L33.21 10.423L33.946 9.705L34.555 10.43L35.165 11.156L34.592 11.823C34.278 12.19 33.976 12.497 33.922 12.506C33.867 12.514 33.519 12.211 33.148 11.831V11.831ZM20.073 13.719L19.58 13.124L20.17 12.552L20.76 11.981L21.332 12.553L21.904 13.125L21.441 13.732C21.186 14.066 20.885 14.333 20.771 14.326C20.659 14.319 20.344 14.046 20.073 13.719V13.719ZM7.03101 20.626L6.40601 19.977L6.92901 19.431C7.57501 18.756 7.73501 18.752 8.35301 19.397L8.84301 19.91L8.25001 20.592L7.65701 21.275L7.03101 20.626Z" fill="white"/>
</svg>

<svg height="68" width="68" xmlns="http://www.w3.org/2000/svg"><path d="m21.088 51.312-1.664 5.184 3.648-3.328zm25.088.128-2.176 1.856 3.264 2.752zm-18.176-.768-2.624.64.32 2.88 2.624-.448zm14.144.64-2.56-.64-.512 3.072 2.496.32zm-23.04-3.264-10.752-24.32q-1.408.384-2.304-.576l-1.408-1.536q-1.92-1.664 0-3.584l1.408-1.344q1.664-2.048 3.52 0l1.536 1.344q1.536 1.92 0 3.584l-.768.768 10.944 8.576-.96-13.824q-.832-.192-1.408-.768l-1.344-1.408q-1.984-1.792 0-3.52l1.344-1.536q1.792-1.664 3.584 0l1.536 1.536q1.536 1.728 0 3.52l-1.536 1.408 6.592 11.264 3.52-12.928-.576-.32-1.408-1.536q-1.728-1.792 0-3.584l1.408-1.536q1.728-1.408 3.52 0l1.408 1.536q1.984 1.792 0 3.584l-1.408 1.536-.64.32 3.584 13.056 6.592-11.072-1.536-1.536q-1.536-1.856 0-3.712l1.408-1.408q1.856-1.536 3.648 0l1.408 1.408q1.856 1.856 0 3.712l-1.408 1.344-1.216.768-.768 13.568 11.264-9.984-.96-.768q-1.536-1.856 0-3.712l1.536-1.408q1.792-1.664 3.584 0l1.344 1.408q1.856 1.856 0 3.712l-1.344 1.344q-1.088 1.088-2.368.768l-11.2 26.304 3.072 12.48h-36.928zm14.784.64-3.264 3.2 3.264 3.264 3.072-3.264zm-13.568-5.056 1.216 2.56q2.688-1.216 5.824-2.304 3.2-1.088 6.656-1.088 3.328 0 5.824.832t6.336 2.752l1.088-2.624q-3.456-1.92-6.528-2.88-3.072-.96-6.72-.96-3.584 0-7.296.96-3.648.896-6.4 2.752zm-12.608-24.96-1.408 1.216 1.408 1.408 1.216-1.408zm13.056-6.784-1.344 1.28 1.344 1.344 1.28-1.344zm13.12-2.304-1.536 1.536 1.536 1.536 1.344-1.536zm12.928 2.304-1.408 1.408 1.408 1.408 1.216-1.408zm13.376 4.928-1.28 1.28 1.28 1.344 1.28-1.344z"/><path d="m19.748 55.859c0-.065.298-1.082.663-2.26l.663-2.144.974.841.974.841-1.5 1.41c-1.409 1.324-1.774 1.594-1.774 1.312zm5.912-2.733c-.064-.583-.132-1.217-.15-1.41-.029-.288.182-.405 1.185-.66l1.22-.309.104.842.188 1.502.084.661-1.027.129c-.565.07-1.13.168-1.257.216-.161.062-.264-.227-.347-.971zm6.573.339-1.607-1.618 1.569-1.436c.862-.79 1.656-1.435 1.764-1.435s.807.67 1.554 1.491l1.357 1.492-1.515 1.562-1.516 1.563zm7.651.378c-.774-.08-.771-.07-.477-1.852l.204-1.237 1.205.308c.814.208 1.194.391 1.172.565a35.11 35.11 0 0 1 -.24 1.303c-.228 1.15-.117 1.096-1.864.913zm5.628.71-1.418-1.214.958-.853c.527-.47 1.002-.811 1.055-.759.151.151 1.052 4.068.931 4.054-.06-.008-.746-.56-1.526-1.228zm-1.492-9.219c-4.423-2.152-8.085-2.907-11.985-2.468-2.563.289-4.195.738-7.627 2.1l-2.886 1.144-.533-1.174c-.401-.886-.482-1.234-.33-1.417.315-.38 3.032-1.66 4.597-2.166 3.73-1.206 8.52-1.649 12.102-1.119 2.695.399 4.49.974 7.436 2.383 2.286 1.094 2.4 1.174 2.244 1.574-.352.901-.916 2.148-.965 2.132-.029-.008-.952-.453-2.052-.989zm15.475-26.674-.461-.59.575-.593.575-.593.589.57.588.57-.488.612c-.269.337-.585.612-.703.612s-.421-.265-.675-.589zm-13.383-4.775-.617-.637.626-.647.627-.646.597.65.597.652-.482.632c-.265.348-.539.632-.607.632-.069 0-.402-.286-.741-.636zm-12.964-2.054-.674-.69.736-.718.736-.718.609.725.61.726-.573.667c-.314.367-.616.674-.67.683-.055.008-.403-.295-.774-.675zm-13.075 1.888-.493-.595.59-.572.59-.571.572.572.572.572-.463.607c-.255.334-.556.601-.67.594-.112-.007-.427-.28-.698-.607zm-13.042 6.907-.625-.649.523-.546c.646-.675.806-.679 1.424-.034l.49.513-.593.682-.593.683z" fill="#fff" fill-rule="evenodd"/></svg>
